img/Logo.svg

<svg width="170" height="72" viewBox="0 0 170 72" fill="none" xmlns="http://www.w3.org/2000/svg">
<path d="M12.5812 26V2.384H18.4132C21.9892 2.384 24.7012 3.392 26.5492 5.408C28.4212 7.424 29.3572 10.316 29.3572 14.084C29.3572 17.852 28.4212 20.78 26.5492 22.868C24.7012 24.956 22.0372 26 18.5572 26H12.5812ZM15.5692 23.552H18.1972C20.9092 23.552 22.9252 22.724 24.2452 21.068C25.5892 19.412 26.2612 17.084 26.2612 14.084C26.2612 11.084 25.5892 8.792 24.2452 7.208C22.9252 5.624 20.9092 4.832 18.1972 4.832H15.5692V23.552ZM42.4112 26V10.916H34.2752V8.504H45.3632V26H42.4112ZM43.5632 4.832C42.8912 4.832 42.3272 4.628 41.8712 4.22C41.4152 3.788 41.1872 3.224 41.1872 2.528C41.1872 1.832 41.4152 1.28 41.8712 0.872C42.3272 0.439999 42.8912 0.223999 43.5632 0.223999C44.2352 0.223999 44.7992 0.439999 45.2552 0.872C45.7112 1.28 45.9392 1.832 45.9392 2.528C45.9392 3.224 45.7112 3.788 45.2552 4.22C44.7992 4.628 44.2352 4.832 43.5632 4.832ZM54.7091 26V8.504H57.0851L57.3371 10.808H57.4091C57.8651 9.992 58.3931 9.332 58.9931 8.828C59.5931 8.324 60.3971 8.072 61.4051 8.072C63.1091 8.072 64.2131 9.08 64.7171 11.096C65.2211 10.16 65.7731 9.428 66.3731 8.9C66.9971 8.348 67.8131 8.072 68.8211 8.072C70.0451 8.072 70.9931 8.54 71.6651 9.476C72.3611 10.388 72.7091 11.72 72.7091 13.472V26H69.7571V13.688C69.7571 11.648 69.1331 10.628 67.8851 10.628C67.2611 10.628 66.7571 10.856 66.3731 11.312C65.9891 11.744 65.5571 12.416 65.0771 13.328V26H62.3411V13.688C62.3411 12.68 62.1971 11.924 61.9091 11.42C61.6451 10.892 61.1891 10.628 60.5411 10.628C59.9171 10.628 59.3891 10.856 58.9571 11.312C58.5251 11.744 58.0931 12.416 57.6611 13.328V26H54.7091ZM85.583 26V10.916H77.447V8.504H88.535V26H85.583ZM86.735 4.832C86.063 4.832 85.499 4.628 85.043 4.22C84.587 3.788 84.359 3.224 84.359 2.528C84.359 1.832 84.587 1.28 85.043 0.872C85.499 0.439999 86.063 0.223999 86.735 0.223999C87.407 0.223999 87.971 0.439999 88.427 0.872C88.883 1.28 89.111 1.832 89.111 2.528C89.111 3.224 88.883 3.788 88.427 4.22C87.971 4.628 87.407 4.832 86.735 4.832ZM109.977 26.432C108.705 26.432 107.637 26.264 106.773 25.928C105.909 25.568 105.213 25.076 104.685 24.452C104.157 23.804 103.773 23.036 103.533 22.148C103.317 21.26 103.209 20.276 103.209 19.196V10.916H98.277V8.684L103.317 8.504L103.713 2.888H106.161V8.504H114.765V10.916H106.161V19.232C106.161 20.024 106.233 20.72 106.377 21.32C106.521 21.896 106.761 22.388 107.097 22.796C107.433 23.204 107.889 23.516 108.465 23.732C109.041 23.924 109.749 24.02 110.589 24.02C111.429 24.02 112.185 23.948 112.857 23.804C113.529 23.66 114.177 23.468 114.801 23.228L115.449 25.388C114.657 25.676 113.817 25.916 112.929 26.108C112.065 26.324 111.081 26.432 109.977 26.432ZM122.635 26V8.504H125.083L125.335 12.644H125.443C126.355 11.228 127.471 10.112 128.791 9.296C130.135 8.48 131.623 8.072 133.255 8.072C133.903 8.072 134.503 8.132 135.055 8.252C135.607 8.348 136.159 8.528 136.711 8.792L136.027 11.348C135.403 11.132 134.875 10.976 134.443 10.88C134.035 10.784 133.483 10.736 132.787 10.736C131.467 10.736 130.195 11.12 128.971 11.888C127.771 12.632 126.643 13.916 125.587 15.74V26H122.635ZM150.341 26V10.916H142.205V8.504H153.293V26H150.341ZM151.493 4.832C150.821 4.832 150.257 4.628 149.801 4.22C149.345 3.788 149.117 3.224 149.117 2.528C149.117 1.832 149.345 1.28 149.801 0.872C150.257 0.439999 150.821 0.223999 151.493 0.223999C152.165 0.223999 152.729 0.439999 153.185 0.872C153.641 1.28 153.869 1.832 153.869 2.528C153.869 3.224 153.641 3.788 153.185 4.22C152.729 4.628 152.165 4.832 151.493 4.832ZM11.2923 71.432C9.82825 71.432 8.47225 71.156 7.22425 70.604C5.97625 70.052 4.88425 69.26 3.94825 68.228C3.03625 67.172 2.31625 65.888 1.78825 64.376C1.26025 62.84 0.99625 61.112 0.99625 59.192C0.99625 57.296 1.26025 55.592 1.78825 54.08C2.31625 52.568 3.04825 51.284 3.98425 50.228C4.92025 49.172 6.03625 48.368 7.33225 47.816C8.62825 47.24 10.0443 46.952 11.5803 46.952C12.9963 46.952 14.2443 47.24 15.3243 47.816C16.4283 48.392 17.3283 49.064 18.0243 49.832L16.3323 51.74C15.7083 51.092 15.0123 50.576 14.2443 50.192C13.4763 49.784 12.5883 49.58 11.5803 49.58C10.4523 49.58 9.42025 49.808 8.48425 50.264C7.57225 50.696 6.79225 51.332 6.14425 52.172C5.49625 52.988 4.99225 53.984 4.63225 55.16C4.27225 56.336 4.09225 57.656 4.09225 59.12C4.09225 60.608 4.27225 61.952 4.63225 63.152C4.99225 64.328 5.49625 65.336 6.14425 66.176C6.79225 67.016 7.57225 67.664 8.48425 68.12C9.42025 68.576 10.4523 68.804 11.5803 68.804C12.6603 68.804 13.6203 68.576 14.4603 68.12C15.3243 67.664 16.1403 67.016 16.9083 66.176L18.6003 68.012C17.6643 69.092 16.6083 69.932 15.4323 70.532C14.2563 71.132 12.8763 71.432 11.2923 71.432ZM25.4982 71V53.504H27.9462L28.1982 57.644H28.3062C29.2182 56.228 30.3342 55.112 31.6542 54.296C32.9982 53.48 34.4862 53.072 36.1182 53.072C36.7662 53.072 37.3662 53.132 37.9182 53.252C38.4702 53.348 39.0222 53.528 39.5742 53.792L38.8902 56.348C38.2662 56.132 37.7382 55.976 37.3062 55.88C36.8982 55.784 36.3462 55.736 35.6502 55.736C34.3302 55.736 33.0582 56.12 31.8342 56.888C30.6342 57.632 29.5062 58.916 28.4502 60.74V71H25.4982ZM53.7081 71.432C52.3881 71.432 51.1521 71.228 50.0001 70.82C48.8721 70.412 47.8761 69.812 47.0121 69.02C46.1721 68.228 45.5001 67.268 44.9961 66.14C44.5161 64.988 44.2761 63.68 44.2761 62.216C44.2761 60.8 44.5161 59.528 44.9961 58.4C45.5001 57.272 46.1601 56.312 46.9761 55.52C47.8161 54.728 48.7641 54.128 49.8201 53.72C50.9001 53.288 52.0281 53.072 53.2041 53.072C54.4521 53.072 55.5681 53.276 56.5521 53.684C57.5601 54.068 58.4001 54.62 59.0721 55.34C59.7681 56.06 60.2961 56.924 60.6561 57.932C61.0161 58.94 61.1961 60.056 61.1961 61.28C61.1961 61.616 61.1841 61.94 61.1601 62.252C61.1361 62.564 61.1001 62.84 61.0521 63.08H47.2641C47.4561 65.072 48.1761 66.572 49.4241 67.58C50.6961 68.564 52.2441 69.056 54.0681 69.056C55.1241 69.056 56.0721 68.912 56.9121 68.624C57.7761 68.312 58.6041 67.904 59.3961 67.4L60.4761 69.344C59.6121 69.92 58.6161 70.412 57.4881 70.82C56.3841 71.228 55.1241 71.432 53.7081 71.432ZM53.2761 55.412C52.5561 55.412 51.8601 55.532 51.1881 55.772C50.5401 56.012 49.9521 56.36 49.4241 56.816C48.8961 57.248 48.4521 57.8 48.0921 58.472C47.7321 59.144 47.4801 59.912 47.3361 60.776H58.4961C58.3761 58.976 57.8481 57.632 56.9121 56.744C56.0001 55.856 54.7881 55.412 53.2761 55.412ZM72.2701 71.432C71.4541 71.432 70.6861 71.312 69.9661 71.072C69.2461 70.856 68.6101 70.544 68.0581 70.136C67.5301 69.704 67.1101 69.188 66.7981 68.588C66.4861 67.964 66.3301 67.256 66.3301 66.464C66.3301 65.48 66.5581 64.628 67.0141 63.908C67.4941 63.164 68.2381 62.528 69.2461 62C70.2781 61.472 71.5981 61.04 73.2061 60.704C74.8141 60.368 76.7461 60.104 79.0021 59.912C78.9781 59.312 78.8821 58.748 78.7141 58.22C78.5461 57.692 78.2821 57.236 77.9221 56.852C77.5621 56.444 77.0821 56.12 76.4821 55.88C75.9061 55.64 75.1981 55.52 74.3581 55.52C73.2061 55.52 72.1021 55.748 71.0461 56.204C69.9901 56.636 69.0541 57.104 68.2381 57.608L67.0861 55.592C67.5181 55.304 68.0221 55.016 68.5981 54.728C69.1981 54.416 69.8221 54.14 70.4701 53.9C71.1421 53.66 71.8501 53.468 72.5941 53.324C73.3381 53.156 74.0941 53.072 74.8621 53.072C77.2621 53.072 79.0381 53.732 80.1901 55.052C81.3661 56.348 81.9541 58.088 81.9541 60.272V71H79.5421L79.2901 68.624H79.1821C78.1981 69.392 77.1061 70.052 75.9061 70.604C74.7301 71.156 73.5181 71.432 72.2701 71.432ZM73.0621 69.056C74.0701 69.056 75.0541 68.84 76.0141 68.408C76.9981 67.952 77.9941 67.304 79.0021 66.464V61.856C77.1301 62 75.5581 62.204 74.2861 62.468C73.0381 62.732 72.0301 63.056 71.2621 63.44C70.5181 63.8 69.9901 64.22 69.6781 64.7C69.3661 65.156 69.2101 65.672 69.2101 66.248C69.2101 66.752 69.3181 67.184 69.5341 67.544C69.7501 67.88 70.0261 68.168 70.3621 68.408C70.7221 68.624 71.1301 68.792 71.5861 68.912C72.0661 69.008 72.5581 69.056 73.0621 69.056ZM99.184 71.432C97.912 71.432 96.844 71.264 95.98 70.928C95.116 70.568 94.42 70.076 93.892 69.452C93.364 68.804 92.98 68.036 92.74 67.148C92.524 66.26 92.416 65.276 92.416 64.196V55.916H87.484V53.684L92.524 53.504L92.92 47.888H95.368V53.504H103.972V55.916H95.368V64.232C95.368 65.024 95.44 65.72 95.584 66.32C95.728 66.896 95.968 67.388 96.304 67.796C96.64 68.204 97.096 68.516 97.672 68.732C98.248 68.924 98.956 69.02 99.796 69.02C100.636 69.02 101.392 68.948 102.064 68.804C102.736 68.66 103.384 68.468 104.008 68.228L104.656 70.388C103.864 70.676 103.024 70.916 102.136 71.108C101.272 71.324 100.288 71.432 99.184 71.432ZM117.962 71V55.916H109.826V53.504H120.914V71H117.962ZM119.114 49.832C118.442 49.832 117.878 49.628 117.422 49.22C116.966 48.788 116.738 48.224 116.738 47.528C116.738 46.832 116.966 46.28 117.422 45.872C117.878 45.44 118.442 45.224 119.114 45.224C119.786 45.224 120.35 45.44 120.806 45.872C121.262 46.28 121.49 46.832 121.49 47.528C121.49 48.224 121.262 48.788 120.806 49.22C120.35 49.628 119.786 49.832 119.114 49.832ZM137.388 71L130.008 53.504H132.996L137.028 63.44C137.388 64.328 137.724 65.204 138.036 66.068C138.372 66.908 138.696 67.748 139.008 68.588H139.152C139.464 67.748 139.764 66.908 140.052 66.068C140.364 65.204 140.7 64.328 141.06 63.44L145.092 53.504H147.936L140.7 71H137.388ZM161.638 71.432C160.318 71.432 159.082 71.228 157.93 70.82C156.802 70.412 155.806 69.812 154.942 69.02C154.102 68.228 153.43 67.268 152.926 66.14C152.446 64.988 152.206 63.68 152.206 62.216C152.206 60.8 152.446 59.528 152.926 58.4C153.43 57.272 154.09 56.312 154.906 55.52C155.746 54.728 156.694 54.128 157.75 53.72C158.83 53.288 159.958 53.072 161.134 53.072C162.382 53.072 163.498 53.276 164.482 53.684C165.49 54.068 166.33 54.62 167.002 55.34C167.698 56.06 168.226 56.924 168.586 57.932C168.946 58.94 169.126 60.056 169.126 61.28C169.126 61.616 169.114 61.94 169.09 62.252C169.066 62.564 169.03 62.84 168.982 63.08H155.194C155.386 65.072 156.106 66.572 157.354 67.58C158.626 68.564 160.174 69.056 161.998 69.056C163.054 69.056 164.002 68.912 164.842 68.624C165.706 68.312 166.534 67.904 167.326 67.4L168.406 69.344C167.542 69.92 166.546 70.412 165.418 70.82C164.314 71.228 163.054 71.432 161.638 71.432ZM161.206 55.412C160.486 55.412 159.79 55.532 159.118 55.772C158.47 56.012 157.882 56.36 157.354 56.816C156.826 57.248 156.382 57.8 156.022 58.472C155.662 59.144 155.41 59.912 155.266 60.776H166.426C166.306 58.976 165.778 57.632 164.842 56.744C163.93 55.856 162.718 55.412 161.206 55.412Z" fill="#2C2C2C"/>
</svg>

<svg width="170" height="72" fill="none" xmlns="http://www.w3.org/2000/svg"><path d="M12.581 26V2.384h5.832c3.576 0 6.288 1.008 8.136 3.024 1.872 2.016 2.808 4.908 2.808 8.676s-.936 6.696-2.808 8.784C24.701 24.956 22.037 26 18.557 26h-5.976zm2.988-2.448h2.628c2.712 0 4.728-.828 6.048-2.484 1.344-1.656 2.016-3.984 2.016-6.984s-.672-5.292-2.016-6.876c-1.32-1.584-3.336-2.376-6.048-2.376H15.57v18.72zM42.411 26V10.916h-8.136V8.504h11.088V26h-2.952zm1.152-21.168c-.672 0-1.236-.204-1.692-.612-.456-.432-.684-.996-.684-1.692s.228-1.248.684-1.656c.456-.432 1.02-.648 1.692-.648.672 0 1.236.216 1.692.648.456.408.684.96.684 1.656s-.228 1.26-.684 1.692c-.456.408-1.02.612-1.692.612zM54.71 26V8.504h2.376l.252 2.304h.072c.456-.816.984-1.476 1.584-1.98.6-.504 1.404-.756 2.412-.756 1.704 0 2.808 1.008 3.312 3.024.504-.936 1.056-1.668 1.656-2.196.624-.552 1.44-.828 2.448-.828 1.224 0 2.172.468 2.844 1.404.696.912 1.044 2.244 1.044 3.996V26h-2.952V13.688c0-2.04-.624-3.06-1.872-3.06-.624 0-1.128.228-1.512.684-.384.432-.816 1.104-1.296 2.016V26h-2.736V13.688c0-1.008-.144-1.764-.432-2.268-.264-.528-.72-.792-1.368-.792-.624 0-1.152.228-1.584.684-.432.432-.864 1.104-1.296 2.016V26H54.71zm30.874 0V10.916h-8.136V8.504h11.088V26h-2.952zm1.152-21.168c-.672 0-1.236-.204-1.692-.612-.456-.432-.684-.996-.684-1.692s.228-1.248.684-1.656c.456-.432 1.02-.648 1.692-.648.672 0 1.236.216 1.692.648.456.408.684.96.684 1.656s-.228 1.26-.684 1.692c-.456.408-1.02.612-1.692.612zm23.242 21.6c-1.272 0-2.34-.168-3.204-.504-.864-.36-1.56-.852-2.088-1.476-.528-.648-.912-1.416-1.152-2.304-.216-.888-.324-1.872-.324-2.952v-8.28h-4.932V8.684l5.04-.18.396-5.616h2.448v5.616h8.604v2.412h-8.604v8.316c0 .792.072 1.488.216 2.088.144.576.384 1.068.72 1.476.336.408.792.72 1.368.936.576.192 1.284.288 2.124.288.84 0 1.596-.072 2.268-.216.672-.144 1.32-.336 1.944-.576l.648 2.16c-.792.288-1.632.528-2.52.72-.864.216-1.848.324-2.952.324zM122.635 26V8.504h2.448l.252 4.14h.108c.912-1.416 2.028-2.532 3.348-3.348 1.344-.816 2.832-1.224 4.464-1.224.648 0 1.248.06 1.8.18a6.358 6.358 0 011.656.54l-.684 2.556a14.85 14.85 0 00-1.584-.468c-.408-.096-.96-.144-1.656-.144-1.32 0-2.592.384-3.816 1.152-1.2.744-2.328 2.028-3.384 3.852V26h-2.952zm27.706 0V10.916h-8.136V8.504h11.088V26h-2.952zm1.152-21.168c-.672 0-1.236-.204-1.692-.612-.456-.432-.684-.996-.684-1.692s.228-1.248.684-1.656c.456-.432 1.02-.648 1.692-.648.672 0 1.236.216 1.692.648.456.408.684.96.684 1.656s-.228 1.26-.684 1.692c-.456.408-1.02.612-1.692.612zm-140.2 66.6c-1.465 0-2.82-.276-4.069-.828a9.655 9.655 0 01-3.276-2.376c-.912-1.056-1.632-2.34-2.16-3.852-.528-1.536-.792-3.264-.792-5.184 0-1.896.264-3.6.792-5.112s1.26-2.796 2.196-3.852a9.28 9.28 0 013.348-2.412c1.296-.576 2.712-.864 4.248-.864 1.416 0 2.664.288 3.744.864 1.104.576 2.004 1.248 2.7 2.016l-1.692 1.908a7.616 7.616 0 00-2.088-1.548c-.768-.408-1.656-.612-2.664-.612-1.128 0-2.16.228-3.096.684a6.38 6.38 0 00-2.34 1.908c-.648.816-1.152 1.812-1.512 2.988-.36 1.176-.54 2.496-.54 3.96 0 1.488.18 2.832.54 4.032.36 1.176.864 2.184 1.512 3.024a6.734 6.734 0 002.34 1.944c.936.456 1.968.684 3.096.684 1.08 0 2.04-.228 2.88-.684.864-.456 1.68-1.104 2.448-1.944l1.692 1.836c-.936 1.08-1.992 1.92-3.168 2.52-1.176.6-2.556.9-4.14.9zM25.497 71V53.504h2.448l.252 4.14h.108c.912-1.416 2.028-2.532 3.348-3.348 1.344-.816 2.832-1.224 4.464-1.224.648 0 1.248.06 1.8.18a6.358 6.358 0 011.656.54l-.684 2.556a14.85 14.85 0 00-1.584-.468c-.408-.096-.96-.144-1.656-.144-1.32 0-2.592.384-3.816 1.152-1.2.744-2.328 2.028-3.384 3.852V71h-2.952zm28.21.432c-1.32 0-2.556-.204-3.708-.612a8.807 8.807 0 01-2.988-1.8c-.84-.792-1.512-1.752-2.016-2.88-.48-1.152-.72-2.46-.72-3.924 0-1.416.24-2.688.72-3.816.504-1.128 1.164-2.088 1.98-2.88a8.665 8.665 0 012.844-1.8 9.029 9.029 0 013.384-.648c1.248 0 2.364.204 3.348.612 1.008.384 1.848.936 2.52 1.656a7.12 7.12 0 011.584 2.592c.36 1.008.54 2.124.54 3.348 0 .336-.012.66-.036.972a7 7 0 01-.108.828H47.264c.192 1.992.912 3.492 2.16 4.5 1.272.984 2.82 1.476 4.644 1.476 1.056 0 2.004-.144 2.844-.432.864-.312 1.692-.72 2.484-1.224l1.08 1.944c-.864.576-1.86 1.068-2.988 1.476-1.104.408-2.364.612-3.78.612zm-.432-16.02c-.72 0-1.416.12-2.088.36a5.716 5.716 0 00-1.764 1.044 5.4 5.4 0 00-1.332 1.656c-.36.672-.612 1.44-.756 2.304h11.16c-.12-1.8-.648-3.144-1.584-4.032-.912-.888-2.124-1.332-3.636-1.332zm18.994 16.02a7.24 7.24 0 01-2.304-.36 6.154 6.154 0 01-1.908-.936 4.905 4.905 0 01-1.26-1.548c-.312-.624-.468-1.332-.468-2.124 0-.984.228-1.836.684-2.556.48-.744 1.224-1.38 2.232-1.908 1.032-.528 2.352-.96 3.96-1.296 1.608-.336 3.54-.6 5.796-.792a6.4 6.4 0 00-.288-1.692 3.54 3.54 0 00-.792-1.368c-.36-.408-.84-.732-1.44-.972-.576-.24-1.284-.36-2.124-.36a8.269 8.269 0 00-3.312.684c-1.056.432-1.992.9-2.808 1.404l-1.152-2.016c.432-.288.936-.576 1.512-.864.6-.312 1.224-.588 1.872-.828.672-.24 1.38-.432 2.124-.576.744-.168 1.5-.252 2.268-.252 2.4 0 4.176.66 5.328 1.98 1.176 1.296 1.764 3.036 1.764 5.22V71h-2.412l-.252-2.376h-.108a16.52 16.52 0 01-3.276 1.98 8.467 8.467 0 01-3.636.828zm.792-2.376a7.124 7.124 0 002.952-.648c.984-.456 1.98-1.104 2.988-1.944v-4.608c-1.872.144-3.444.348-4.716.612-1.248.264-2.256.588-3.024.972-.744.36-1.272.78-1.584 1.26a2.677 2.677 0 00-.468 1.548c0 .504.108.936.324 1.296.216.336.492.624.828.864.36.216.768.384 1.224.504.48.096.972.144 1.476.144zm26.122 2.376c-1.272 0-2.34-.168-3.204-.504-.864-.36-1.56-.852-2.088-1.476-.528-.648-.912-1.416-1.152-2.304-.216-.888-.324-1.872-.324-2.952v-8.28h-4.932v-2.232l5.04-.18.396-5.616h2.448v5.616h8.604v2.412h-8.604v8.316c0 .792.072 1.488.216 2.088.144.576.384 1.068.72 1.476.336.408.792.72 1.368.936.576.192 1.284.288 2.124.288.84 0 1.596-.072 2.268-.216.672-.144 1.32-.336 1.944-.576l.648 2.16c-.792.288-1.632.528-2.52.72-.864.216-1.848.324-2.952.324zM117.962 71V55.916h-8.136v-2.412h11.088V71h-2.952zm1.152-21.168c-.672 0-1.236-.204-1.692-.612-.456-.432-.684-.996-.684-1.692s.228-1.248.684-1.656c.456-.432 1.02-.648 1.692-.648.672 0 1.236.216 1.692.648.456.408.684.96.684 1.656s-.228 1.26-.684 1.692c-.456.408-1.02.612-1.692.612zM137.388 71l-7.38-17.496h2.988l4.032 9.936c.36.888.696 1.764 1.008 2.628.336.84.66 1.68.972 2.52h.144c.312-.84.612-1.68.9-2.52.312-.864.648-1.74 1.008-2.628l4.032-9.936h2.844L140.7 71h-3.312zm24.25.432c-1.32 0-2.556-.204-3.708-.612a8.807 8.807 0 01-2.988-1.8c-.84-.792-1.512-1.752-2.016-2.88-.48-1.152-.72-2.46-.72-3.924 0-1.416.24-2.688.72-3.816.504-1.128 1.164-2.088 1.98-2.88a8.665 8.665 0 012.844-1.8 9.029 9.029 0 013.384-.648c1.248 0 2.364.204 3.348.612 1.008.384 1.848.936 2.52 1.656a7.12 7.12 0 011.584 2.592c.36 1.008.54 2.124.54 3.348 0 .336-.012.66-.036.972a7 7 0 01-.108.828h-13.788c.192 1.992.912 3.492 2.16 4.5 1.272.984 2.82 1.476 4.644 1.476 1.056 0 2.004-.144 2.844-.432.864-.312 1.692-.72 2.484-1.224l1.08 1.944c-.864.576-1.86 1.068-2.988 1.476-1.104.408-2.364.612-3.78.612zm-.432-16.02c-.72 0-1.416.12-2.088.36a5.716 5.716 0 00-1.764 1.044 5.4 5.4 0 00-1.332 1.656c-.36.672-.612 1.44-.756 2.304h11.16c-.12-1.8-.648-3.144-1.584-4.032-.912-.888-2.124-1.332-3.636-1.332z" fill="#2C2C2C"/></svg>
